X:979
T:Polska
T:efter Pelle Fors
Z:Björn Ek 2009-01-10
O:Vikbolandet, Östergötland
S:efter Pelle Fors
B:Låtar efter Pelle Fors
R:Polska
M:3/4
L:1/16
K:D
%
|:A2d2 d2c2 d2B2|TB2A2 A2G2 TG2F2|A3d f3d A2A2|G2G2 F8:|
%
|:edef g2e2 c2A2|ABAG F2D2 F2A2|edef g2e2 c2A2|ABAG F2D2 F2A2|
A2d2 d4 f4|(ed)ef g2g2 e2e2|c2c2 d8:|
%


(:musicend:)

(:music:)
